images/bcpt.svg

<svg height="250" viewBox="0 0 250 250" width="250" xmlns="http://www.w3.org/2000/svg" xmlns:xlink="http://www.w3.org/1999/xlink"><filter id="a" height="100%" width="100%" x="0%" y="0%"><feColorMatrix in="SourceGraphic" type="matrix" values="0 0 0 0 1 0 0 0 0 1 0 0 0 0 1 0 0 0 1 0"/></filter><mask id="b"><g filter="url(#a)"><path d="m0 0h250v250h-250z" fill-opacity=".742357"/></g></mask><linearGradient id="c"><stop offset="0" stop-color="#fbda61"/><stop offset="1" stop-color="#f76b1c"/></linearGradient><linearGradient id="d" gradientTransform="matrix(-22.255393 254.380302 -217.035748 -18.988168 218.538148 2.51487)" gradientUnits="userSpaceOnUse" x1=".5" x2=".5" xlink:href="#c" y1="0" y2="1"/><clipPath id="e"><path d="m0 0h250v250h-250z"/></clipPath><mask id="f"><g filter="url(#a)"><path d="m0 0h250v250h-250z" fill-opacity=".39"/></g></mask><clipPath id="g"><path d="m0 0h250v250h-250z"/></clipPath><mask id="h"><g filter="url(#a)"><path d="m0 0h250v250h-250z" fill-opacity=".825577"/></g></mask><linearGradient id="i"><stop offset="0" stop-color="#f5515f"/><stop offset="1" stop-color="#9f031b"/></linearGradient><linearGradient id="j" gradientTransform="matrix(37.653292 49.967606 -39.364181 29.663038 123.642554 172.661241)" gradientUnits="userSpaceOnUse" x1=".5" x2=".5" xlink:href="#i" y1="0" y2="1"/><clipPath id="k"><path d="m0 0h250v250h-250z"/></clipPath><mask id="l"><g filter="url(#a)"><path d="m0 0h250v250h-250z" fill-opacity=".717899"/></g></mask><clipPath id="m"><path d="m0 0h250v250h-250z"/></clipPath><mask id="n"><g filter="url(#a)"><path d="m0 0h250v250h-250z" fill-opacity=".825577"/></g></mask><linearGradient id="o" gradientTransform="matrix(49.730638 27.566143 -33.49772 60.431487 152.36401 165.421107)" gradientUnits="userSpaceOnUse" x1=".5" x2=".5" xlink:href="#i" y1="0" y2="1"/><clipPath id="p"><path d="m0 0h250v250h-250z"/></clipPath><mask id="q"><g filter="url(#a)"><path d="m0 0h250v250h-250z" fill-opacity=".819744"/></g></mask><clipPath id="r"><path d="m0 0h250v250h-250z"/></clipPath><mask id="s"><g filter="url(#a)"><path d="m0 0h250v250h-250z" fill-opacity=".825577"/></g></mask><linearGradient id="t" gradientTransform="matrix(45.393053 8.00402 -8.396327 47.617937 170.023121 171.024959)" gradientUnits="userSpaceOnUse" x1=".5" x2=".5" xlink:href="#i" y1="0" y2="1"/><clipPath id="u"><path d="m0 0h250v250h-250z"/></clipPath><mask id="v"><g filter="url(#a)"><path d="m0 0h250v250h-250z" fill-opacity=".825577"/></g></mask><linearGradient id="w" gradientTransform="matrix(40.908402 -1.428553 1.103258 31.593175 184.37503 170.474329)" gradientUnits="userSpaceOnUse" x1=".5" x2=".5" xlink:href="#i" y1="0" y2="1"/><clipPath id="x"><path d="m0 0h250v250h-250z"/></clipPath><mask id="y"><g filter="url(#a)"><path d="m0 0h250v250h-250z" fill-opacity=".825577"/></g></mask><linearGradient id="z" gradientTransform="matrix(5.905601 -67.501324 62.785942 5.493058 145.947197 93.170149)" gradientUnits="userSpaceOnUse" x1=".5" x2=".5" xlink:href="#c" y1="0" y2="1"/><clipPath id="A"><path d="m0 0h250v250h-250z"/></clipPath><mask id="B"><g filter="url(#a)"><path d="m0 0h250v250h-250z" fill-opacity=".825577"/></g></mask><linearGradient id="C" gradientTransform="matrix(27.459553 -67.96478 82.834668 33.467378 137.382186 97.19206)" gradientUnits="userSpaceOnUse" x1=".5" x2=".5" xlink:href="#c" y1="0" y2="1"/><clipPath id="D"><path d="m0 0h250v250h-250z"/></clipPath><g clip-path="url(#e)" mask="url(#b)"><path d="m197.785156 24.847656c-17.746094-13.085937-39.195312-21.605468-62.761718-23.667968-68.324219-5.976563-128.558594 44.601562-134.542969 112.976562-4.835938 55.304688 27.304687 105.308594 75.925781 125.566406l29.582031-71.28125c-18.359375-7.644531-30.492187-26.519531-28.667969-47.398437 2.257813-25.808594 24.996094-44.902344 50.785157-42.644531 8.882812.777343 16.96875 3.984374 23.664062 8.914062zm0 0" fill="url(#d)" fill-rule="evenodd"/></g><g clip-path="url(#g)" mask="url(#f)"><path d="m120.3125 249.117188c-15.53125-.4375-30.652344-3.808594-44.644531-9.707032l29.804687-71.125c5.300782 2.238282 11.027344 3.519532 16.910156 3.683594zm0 0" fill="#fbbd72" fill-rule="evenodd"/></g><g clip-path="url(#k)" mask="url(#h)"><path d="m125.890625 249.289062c-2.070313.035157-4.140625.019532-6.207031-.050781l2.230468-73.59375c.839844.050781 1.683594.078125 2.527344.082031zm0 0" fill="url(#j)" fill-rule="evenodd"/></g><g clip-path="url(#m)" mask="url(#l)"><path d="m170.632812 240.0625c-14.367187 5.917969-29.550781 8.988281-44.730468 9.285156l-1.570313-71.070312c6.484375-.128906 12.972657-1.453125 19.101563-4.007813zm0 0" fill="#f6a623" fill-rule="evenodd"/></g><g clip-path="url(#p)" mask="url(#n)"><path d="m175.796875 237.949219c-1.875.875-3.773437 1.703125-5.6875 2.480469l-24.945313-60.929688c.910157-.339844 1.8125-.703125 2.707032-1.089844zm0 0" fill="url(#o)" fill-rule="evenodd"/></g><g clip-path="url(#r)" mask="url(#q)"><path d="m204.011719 219.394531c-8.632813 7.605469-18.195313 13.882813-28.367188 18.75l-23.535156-48.84375c5.582031-2.914062 10.738281-6.738281 15.234375-11.40625zm0 0" fill="#ff7511" fill-rule="evenodd"/></g><g clip-path="url(#u)" mask="url(#s)"><path d="m208.207031 215.71875c-1.492187 1.4375-3.015625 2.835938-4.574219 4.195312l-34.796874-39.660156c.875-.804687 1.722656-1.636718 2.546874-2.496094zm0 0" fill="url(#t)" fill-rule="evenodd"/></g><path d="m221.992188 200.082031c-4.320313 5.816407-9.113282 11.191407-14.304688 16.09375l-31.898438-33.597656c3.179688-3.117187 6.058594-6.589844 8.5625-10.386719zm0 0" fill="#ff7511" fill-rule="evenodd"/><g clip-path="url(#x)" mask="url(#v)"><path d="m225.332031 195.617188c-1.160156 1.71875-2.359375 3.402343-3.601562 5.058593l-36.300781-27.09375c.828124-1.023437 1.625-2.070312 2.386718-3.144531zm0 0" fill="url(#w)" fill-rule="evenodd"/></g><g clip-path="url(#A)" mask="url(#y)"><path d="m204.59375 30.683594c1.5625 1.359375 3.089844 2.757812 4.578125 4.191406l-56.234375 58.773438c-.496094-.515626-1.003906-1.019532-1.523438-1.511719zm0 0" fill="url(#z)" fill-rule="evenodd"/></g><g clip-path="url(#D)" mask="url(#B)"><path d="m227.867188 55.964844c1.097656 1.757812 2.148437 3.539062 3.152343 5.34375l-76.042969 42.613281c-.300781-.539063-.613281-1.070313-.9375-1.59375zm0 0" fill="url(#C)" fill-rule="evenodd"/></g></svg>

<?xml version="1.0" encoding="UTF-8"?>
<svg xmlns="http://www.w3.org/2000/svg" xmlns:xlink="http://www.w3.org/1999/xlink" width="250px" height="250px" viewBox="0 0 250 250" version="1.1">
<defs>
<filter id="alpha" filterUnits="objectBoundingBox" x="0%" y="0%" width="100%" height="100%">
  <feColorMatrix type="matrix" in="SourceGraphic" values="0 0 0 0 1 0 0 0 0 1 0 0 0 0 1 0 0 0 1 0"/>
</filter>
<mask id="mask0">
  <g filter="url(#alpha)">
<rect x="0" y="0" width="250" height="250" style="fill:rgb(0%,0%,0%);fill-opacity:0.742357;stroke:none;"/>
  </g>
</mask>
<linearGradient id="linear0" gradientUnits="userSpaceOnUse" x1="0.5" y1="0" x2="0.5" y2="1" gradientTransform="matrix(-22.255393,254.380302,-217.035748,-18.988168,218.538148,2.51487)">
<stop offset="0" style="stop-color:rgb(98.431373%,85.490197%,38.039216%);stop-opacity:1;"/>
<stop offset="1" style="stop-color:rgb(96.862745%,41.960785%,10.980392%);stop-opacity:1;"/>
</linearGradient>
<clipPath id="clip1">
  <rect x="0" y="0" width="250" height="250"/>
</clipPath>
<g id="surface5" clip-path="url(#clip1)">
<path style=" stroke:none;fill-rule:evenodd;fill:url(#linear0);" d="M 197.785156 24.847656 C 180.039062 11.761719 158.589844 3.242188 135.023438 1.179688 C 66.699219 -4.796875 6.464844 45.78125 0.480469 114.15625 C -4.355469 169.460938 27.785156 219.464844 76.40625 239.722656 L 105.988281 168.441406 C 87.628906 160.796875 75.496094 141.921875 77.320312 121.042969 C 79.578125 95.234375 102.316406 76.140625 128.105469 78.398438 C 136.988281 79.175781 145.074219 82.382812 151.769531 87.3125 Z M 197.785156 24.847656 "/>
</g>
<mask id="mask1">
  <g filter="url(#alpha)">
<rect x="0" y="0" width="250" height="250" style="fill:rgb(0%,0%,0%);fill-opacity:0.39;stroke:none;"/>
  </g>
</mask>
<clipPath id="clip2">
  <rect x="0" y="0" width="250" height="250"/>
</clipPath>
<g id="surface8" clip-path="url(#clip2)">
<path style=" stroke:none;fill-rule:evenodd;fill:rgb(98.431373%,74.117649%,44.705883%);fill-opacity:1;" d="M 120.3125 249.117188 C 104.78125 248.679688 89.660156 245.308594 75.667969 239.410156 L 105.472656 168.285156 C 110.773438 170.523438 116.5 171.804688 122.382812 171.96875 Z M 120.3125 249.117188 "/>
</g>
<mask id="mask2">
  <g filter="url(#alpha)">
<rect x="0" y="0" width="250" height="250" style="fill:rgb(0%,0%,0%);fill-opacity:0.825577;stroke:none;"/>
  </g>
</mask>
<linearGradient id="linear1" gradientUnits="userSpaceOnUse" x1="0.5" y1="0" x2="0.5" y2="1" gradientTransform="matrix(37.653292,49.967606,-39.364181,29.663038,123.642554,172.661241)">
<stop offset="0" style="stop-color:rgb(96.078432%,31.764707%,37.254903%);stop-opacity:1;"/>
<stop offset="1" style="stop-color:rgb(62.352943%,1.176471%,10.588235%);stop-opacity:1;"/>
</linearGradient>
<clipPath id="clip3">
  <rect x="0" y="0" width="250" height="250"/>
</clipPath>
<g id="surface11" clip-path="url(#clip3)">
<path style=" stroke:none;fill-rule:evenodd;fill:url(#linear1);" d="M 125.890625 249.289062 C 123.820312 249.324219 121.75 249.308594 119.683594 249.238281 L 121.914062 175.644531 C 122.753906 175.695312 123.597656 175.722656 124.441406 175.726562 Z M 125.890625 249.289062 "/>
</g>
<mask id="mask3">
  <g filter="url(#alpha)">
<rect x="0" y="0" width="250" height="250" style="fill:rgb(0%,0%,0%);fill-opacity:0.717899;stroke:none;"/>
  </g>
</mask>
<clipPath id="clip4">
  <rect x="0" y="0" width="250" height="250"/>
</clipPath>
<g id="surface14" clip-path="url(#clip4)">
<path style=" stroke:none;fill-rule:evenodd;fill:rgb(96.470588%,65.098041%,13.725491%);fill-opacity:1;" d="M 170.632812 240.0625 C 156.265625 245.980469 141.082031 249.050781 125.902344 249.347656 L 124.332031 178.277344 C 130.816406 178.148438 137.304688 176.824219 143.433594 174.269531 Z M 170.632812 240.0625 "/>
</g>
<mask id="mask4">
  <g filter="url(#alpha)">
<rect x="0" y="0" width="250" height="250" style="fill:rgb(0%,0%,0%);fill-opacity:0.825577;stroke:none;"/>
  </g>
</mask>
<linearGradient id="linear2" gradientUnits="userSpaceOnUse" x1="0.5" y1="0" x2="0.5" y2="1" gradientTransform="matrix(49.730638,27.566143,-33.49772,60.431487,152.36401,165.421107)">
<stop offset="0" style="stop-color:rgb(96.078432%,31.764707%,37.254903%);stop-opacity:1;"/>
<stop offset="1" style="stop-color:rgb(62.352943%,1.176471%,10.588235%);stop-opacity:1;"/>
</linearGradient>
<clipPath id="clip5">
  <rect x="0" y="0" width="250" height="250"/>
</clipPath>
<g id="surface17" clip-path="url(#clip5)">
<path style=" stroke:none;fill-rule:evenodd;fill:url(#linear2);" d="M 175.796875 237.949219 C 173.921875 238.824219 172.023438 239.652344 170.109375 240.429688 L 145.164062 179.5 C 146.074219 179.160156 146.976562 178.796875 147.871094 178.410156 Z M 175.796875 237.949219 "/>
</g>
<mask id="mask5">
  <g filter="url(#alpha)">
<rect x="0" y="0" width="250" height="250" style="fill:rgb(0%,0%,0%);fill-opacity:0.819744;stroke:none;"/>
  </g>
</mask>
<clipPath id="clip6">
  <rect x="0" y="0" width="250" height="250"/>
</clipPath>
<g id="surface20" clip-path="url(#clip6)">
<path style=" stroke:none;fill-rule:evenodd;fill:rgb(100%,45.882353%,6.666667%);fill-opacity:1;" d="M 204.011719 219.394531 C 195.378906 227 185.816406 233.277344 175.644531 238.144531 L 152.109375 189.300781 C 157.691406 186.386719 162.847656 182.5625 167.34375 177.894531 Z M 204.011719 219.394531 "/>
</g>
<mask id="mask6">
  <g filter="url(#alpha)">
<rect x="0" y="0" width="250" height="250" style="fill:rgb(0%,0%,0%);fill-opacity:0.825577;stroke:none;"/>
  </g>
</mask>
<linearGradient id="linear3" gradientUnits="userSpaceOnUse" x1="0.5" y1="0" x2="0.5" y2="1" gradientTransform="matrix(45.393053,8.00402,-8.396327,47.617937,170.023121,171.024959)">
<stop offset="0" style="stop-color:rgb(96.078432%,31.764707%,37.254903%);stop-opacity:1;"/>
<stop offset="1" style="stop-color:rgb(62.352943%,1.176471%,10.588235%);stop-opacity:1;"/>
</linearGradient>
<clipPath id="clip7">
  <rect x="0" y="0" width="250" height="250"/>
</clipPath>
<g id="surface23" clip-path="url(#clip7)">
<path style=" stroke:none;fill-rule:evenodd;fill:url(#linear3);" d="M 208.207031 215.71875 C 206.714844 217.15625 205.191406 218.554688 203.632812 219.914062 L 168.835938 180.253906 C 169.710938 179.449219 170.558594 178.617188 171.382812 177.757812 Z M 208.207031 215.71875 "/>
</g>
<mask id="mask7">
  <g filter="url(#alpha)">
<rect x="0" y="0" width="250" height="250" style="fill:rgb(0%,0%,0%);fill-opacity:0.825577;stroke:none;"/>
  </g>
</mask>
<linearGradient id="linear4" gradientUnits="userSpaceOnUse" x1="0.5" y1="0" x2="0.5" y2="1" gradientTransform="matrix(40.908402,-1.428553,1.103258,31.593175,184.37503,170.474329)">
<stop offset="0" style="stop-color:rgb(96.078432%,31.764707%,37.254903%);stop-opacity:1;"/>
<stop offset="1" style="stop-color:rgb(62.352943%,1.176471%,10.588235%);stop-opacity:1;"/>
</linearGradient>
<clipPath id="clip8">
  <rect x="0" y="0" width="250" height="250"/>
</clipPath>
<g id="surface26" clip-path="url(#clip8)">
<path style=" stroke:none;fill-rule:evenodd;fill:url(#linear4);" d="M 225.332031 195.617188 C 224.171875 197.335938 222.972656 199.019531 221.730469 200.675781 L 185.429688 173.582031 C 186.257812 172.558594 187.054688 171.511719 187.816406 170.4375 Z M 225.332031 195.617188 "/>
</g>
<mask id="mask8">
  <g filter="url(#alpha)">
<rect x="0" y="0" width="250" height="250" style="fill:rgb(0%,0%,0%);fill-opacity:0.825577;stroke:none;"/>
  </g>
</mask>
<linearGradient id="linear5" gradientUnits="userSpaceOnUse" x1="0.5" y1="0" x2="0.5" y2="1" gradientTransform="matrix(5.905601,-67.501324,62.785942,5.493058,145.947197,93.170149)">
<stop offset="0" style="stop-color:rgb(98.431373%,85.490197%,38.039216%);stop-opacity:1;"/>
<stop offset="1" style="stop-color:rgb(96.862745%,41.960785%,10.980392%);stop-opacity:1;"/>
</linearGradient>
<clipPath id="clip9">
  <rect x="0" y="0" width="250" height="250"/>
</clipPath>
<g id="surface29" clip-path="url(#clip9)">
<path style=" stroke:none;fill-rule:evenodd;fill:url(#linear5);" d="M 204.59375 30.683594 C 206.15625 32.042969 207.683594 33.441406 209.171875 34.875 L 152.9375 93.648438 C 152.441406 93.132812 151.933594 92.628906 151.414062 92.136719 Z M 204.59375 30.683594 "/>
</g>
<mask id="mask9">
  <g filter="url(#alpha)">
<rect x="0" y="0" width="250" height="250" style="fill:rgb(0%,0%,0%);fill-opacity:0.825577;stroke:none;"/>
  </g>
</mask>
<linearGradient id="linear6" gradientUnits="userSpaceOnUse" x1="0.5" y1="0" x2="0.5" y2="1" gradientTransform="matrix(27.459553,-67.96478,82.834668,33.467378,137.382186,97.19206)">
<stop offset="0" style="stop-color:rgb(98.431373%,85.490197%,38.039216%);stop-opacity:1;"/>
<stop offset="1" style="stop-color:rgb(96.862745%,41.960785%,10.980392%);stop-opacity:1;"/>
</linearGradient>
<clipPath id="clip10">
  <rect x="0" y="0" width="250" height="250"/>
</clipPath>
<g id="surface32" clip-path="url(#clip10)">
<path style=" stroke:none;fill-rule:evenodd;fill:url(#linear6);" d="M 227.867188 55.964844 C 228.964844 57.722656 230.015625 59.503906 231.019531 61.308594 L 154.976562 103.921875 C 154.675781 103.382812 154.363281 102.851562 154.039062 102.328125 Z M 227.867188 55.964844 "/>
</g>
</defs>
<g id="surface1">
<use xlink:href="#surface5" mask="url(#mask0)"/>
<use xlink:href="#surface8" mask="url(#mask1)"/>
<use xlink:href="#surface11" mask="url(#mask2)"/>
<use xlink:href="#surface14" mask="url(#mask3)"/>
<use xlink:href="#surface17" mask="url(#mask4)"/>
<use xlink:href="#surface20" mask="url(#mask5)"/>
<use xlink:href="#surface23" mask="url(#mask6)"/>
<path style=" stroke:none;fill-rule:evenodd;fill:rgb(100%,45.882353%,6.666667%);fill-opacity:1;" d="M 221.992188 200.082031 C 217.671875 205.898438 212.878906 211.273438 207.6875 216.175781 L 175.789062 182.578125 C 178.96875 179.460938 181.847656 175.988281 184.351562 172.191406 Z M 221.992188 200.082031 "/>
<use xlink:href="#surface26" mask="url(#mask7)"/>
<use xlink:href="#surface29" mask="url(#mask8)"/>
<use xlink:href="#surface32" mask="url(#mask9)"/>
</g>
</svg>
